rospo-newyear-dark/symbolic/devices/drive-removable-media-symbolic.svg

<svg height="16" width="16" xmlns="http://www.w3.org/2000/svg"><path d="m3 1s-2 0-2 2v10s0 2 2 2h10c2 0 2-2 2-2v-10c0-2-2-2-2-2zm2 8h6v2h-6zm3-4.5 3 3.5h-6z" fill="#d3dae3"/></svg>

<svg xmlns="http://www.w3.org/2000/svg" width="16" height="16" version="1.1">
 <path style="fill:#d3dae3" d="M 3,1 C 3,1 1,1 1,3 V 13 C 1,13 1,15 3,15 H 13 C 15,15 15,13 15,13 V 3 C 15,1 13,1 13,1 Z M 5,9 H 11 V 11 H 5 Z M 8,4.5 11,8 H 5 Z"/>
</svg>
